X:1
T:Why smilest thou, sweet jewel? - East
T:#
%%score [ 1 2 3 ] { ( 4 5 ) | 6 }
L:1/8
Q:1/4=120
M:4/4
K:F
V:1 treble nm="Soprano I" snm="S1"
V:2 treble nm="Soprano II" snm="S2"
V:3 treble-8 nm="Tenor" snm="T"
V:4 treble nm="Practice"
V:5 treble 
V:6 bass 
V:1
 G4"^Why smilest thou, sweet jewel?" (GABc | d2) GG (Bcde | ^f2) gg (d3 c/B/ | %3
w: Why smil\- * * *|* est, why smil\- * * *|* est, why smil\- * *|
 A2) =B2 z2"^Michael East\n(c.1580-1648)" d2 |[M:4/4] _e3 d c2 B2- | B2 A2 B2 d2 | c2 B2 A2 B2 | %7
w: * est, why|smil- est thou, sweet|* jew- el, and|art so full, and|
 A2 G2 ^F2 G2 | (cBcB AGAG | ^F2 G2 A4) | =B2 d2 (_eded | cBcB A2 G2 | ^F2 G2 A4) | =B4 d4 | %14
w: art so full of|glad\- * * * * * * *||ness, of glad\- * * *|||ness, when|
 G4 B4 | A4 G4- | G4 ^F4 | G4 g4 | c4 _e4 | d6 c2 | B2 G2 d4- | d4 ^c4 | d8 | z4 d4 | g6 f2 | %25
w: thou to|me most|* cru-|el, when|thou to|me most|cru- el, most|* cru-|el,|dost|cause me|
 _e4 e4 | d8 | A8 | z4 d4 | f6 e2 | d2 c2 (B2 AG | A8) | =B4 z2 d2 | _e3 e d2 B2 | A6 f2 | %35
w: pine in|sad-|ness,|dost|cause me|pine in sad\- * *||ness, but|since you joy to|see me|
 _e4 d4- | d4 c4 | d4 z2 A2 | ^F2 B2 A2 F2 | A2 G2 ^F4 | z8 | f8- | f4 c2 d2 | e4 d4- | %44
w: thus tor\-|* ment-|ed, ev'n|for thy love, ev'n|for thy love,||I|* am with|grief con\-|
 d2 (^c=B c4) | d8 | d8- | d4 A2 B2 |[Q:1/4=117][Q:1/4=117] c8- | %49
w: * tent\- * *|ed,|I|* am with|grief|
[Q:1/4=114][Q:1/4=114] c4[Q:1/4=113][Q:1/4=113] (B2[Q:1/4=112][Q:1/4=112] A[Q:1/4=112][Q:1/4=112]G) | %50
w: * con\- * *|
[Q:1/4=109][Q:1/4=109] A8 |[Q:1/4=108][Q:1/4=108] !fermata!=B8 |] %52
w: tent-|ed.|
V:2
 z4 z2 G2 | (GABc d3 c/B/ | A2) =B2 z2 d2 | d3 d z2 g2 |[M:4/4] g3 f _e2 d2 | c4 d2 B2 | %6
w: Why|smil\- * * * * * *|* est, why|smil- est, why|smil- est thou, sweet|jew- el, and|
 A2 G2 ^F2 d2 | c2 B2 A2 d2 | (_eded cBcB | A2 G4 ^F2) | G8 | z4 z2 B2 | (A2 G3 ^F/E/ F2) | G8 | %14
w: art so full, and|art so full of|glad\- * * * * * * *||ness,|of|glad\- * * * *|ess,|
 z4 g4 | c4 _e4 | d6 c2 | B4 G4 | A4 B4 | A4 A4 | D4 G4 | E6 E2 | ^F2 D2 A4 | B6 A2 | G2 A2 (B4- | %25
w: when|thou to|me most|cru- el,|most cru-|el, when|thou to|me most|cru- el, dost|cause me|pine in sad\-|
 B2 AG A4) | B4 d4 | f6 e2 | d2 c2 B4 | A2 A2 d2 c2 | B2 A4 (G2- | G2 ^FE F4) | G4 z2 B2 | %33
w: |ness, dost|cause me|pine in sad-|ness, dost cause me|pine in sad\-||ness, but|
 G3 G G2 G2 | (^F3 G A2) B2 | c4 F4 | G8 | ^F4 z2 F2 | A2 G2 ^F2 A2 | d2 B2 A4 | z4 d4- | %41
w: since you joy to|see * * me|thus tor-|ment-|ed, ev'n|for thy love, ev'n|for thy love|I|
 d4 A2 B2 | c4 A4- | A2 (G2 F2 ED | E8) | ^F4 B4- | B4 F2 G2 | A8- | A4 G4 | ^F4 G4- | %50
w: * am with|grief con\-|* tent\- * * *||ed, I|* am with|grief,|* with|grief con\-|
 G2 (^FE F4) | !fermata!G8 |] %52
w: * tent\- * *|ed.|
V:3
 z8 | z2 G2 (GABc | d2) GG (Bcde | ^f2) g2 z2 G2 |[M:4/4][K:treble-8] c3 d _e2 B2 | f4 B2 B2 | %6
w: |Why smil\- * * *|* est, why smil\- * * *|* est, why|smil- est thou, sweet|jew- el, and|
 f2 g2 d2 B2 | F2 G2 d2 B2 | c8 | d8 | z2 G2 (cBcB | AGAG ^F2 G2 | d8) | G8- | G8 | z8 | z4 d4 | %17
w: art so full, and|art so full of|glad-|ness,|of glad\- * * *|||ness,|||when|
 G4 B4 | A4 G4- | G4 ^F4 | G4 G4 | A8 | d4 d4 | g6 f2 | _e4 d4 | c8 | B4 G4 | d6 c2 | B2 A2 (GABc | %29
w: thou to|me most|* cru-|el, most|cru-|el, dost|cause me|pine in|sad-|ness, dost|cause me|pine in sad\- * * *|
 d8- | d8 | d8) | G4 z2 G2 | c3 c B2 G2 | d6 d2 | c4 d4 | _e8 | d4 z2 d2 | d2 G2 d2 d2 | %39
w: |||ness, but|since you joy to|see me|thus tor-|ment-|ed, ev'n|for thy love, ev'n|
 ^f2 g2 d4 | B8- | B4 F2 G2 | A8- | A4 A4 | A8 | d4 g4- | g4 d2 e2 | f8- | f4 _e4 | d8- | d8 | %51
w: for thy love,|I|* am with|grief|* con-|tent-|ed, I|* am with|grief|* con-|tent\-||
 !fermata!G8 |] %52
w: ed.|
V:4
 G4 GABc | d2 GG Bcde | ^f2 gg d3 c/_B/ | A2 =B2 z2 d2 |[M:4/4] _e3 d c2 B2- | B2 A2 B2 d2 | %6
 c2 B2 A2 B2 | A2 G2 ^F2 G2 | cBcB AGAG | ^F2 x2 A4 | =B2 d2 _eded | cBcB A2 G2 | ^F2 G2 A4 | %13
 =B4 d4 | G4 B4 | A4 G4- | G4 ^F4 | G4 g4 | c4 _e4 | d6 c2 | B2 G2 d4- | d4 ^c4 | d8 | z4 d4 | %24
 g6 f2 | _e4 e4 | d8 | A8 | x4 d4 | f6 e2 | d2 c2 B2 AG | A8 | =B4 z2 d2 | _e3 e d2 B2 | A6 f2 | %35
 _e4 d4- | d4 c4 | d4 z2 A2 | ^F2 B2 A2 F2 | A2 G2 ^F4 | x8 | f8- | f4 c2 d2 | e4 d4- | %44
 d2 ^c=B c4 | d8 | d8- | d4 A2 B2 | c8- | c4 B2 AG | A8 | =B8 |] %52
V:5
 x4 x2 G2 | GA Bc d3 c/B/ | A2 =B2 z2 d2 | d3 d z2 g2 |[M:4/4] g3 f _e2 d2 | c4 d2 B2 | %6
 A2 G2 ^F2 d2 | c2 B2 A2 d2 | _eded cBcB | A2 G4 ^F2 | G8 | x4 x2 B2 | A2 G3 ^F/E/ F2 | G8 | %14
 x4 g4 | c4 _e4 | d6 c2 | B4 G4 | A4 B4 | A4 A4 | D4 G4 | E6 E2 | ^F2 D2 A4 | B6 A2 | G2 A2 B4- | %25
 B2 AG A4 | B4 d4 | f6 e2 | d2 c2 B4 | A2 A2 d2 c2 | B2 A4 G2- | G2 ^FE F4 | G4 z2 _B2 | %33
 G3 G G2 G2 | ^F3 G A2 B2 | c4 F4 | G8 | ^F4 z2 F2 | A2 G2 ^F2 A2 | d2 B2 A4 | z4 d4- | d4 A2 B2 | %42
 c4 A4- | A2 G2 F2 ED | E8 | ^F4 B4- | B4 F2 G2 | A8- | A4 G4 | ^F4 G4- | G2 ^FE F4 | %51
 !fermata!G8 |] %52
V:6
 z8 | z2 G,2 G,A,B,C | D2 G,G, B,CDE |[I:staff -1] ^F2 G2[I:staff +1] z2 G,2 | %4
[M:4/4] C3 D _E2 B,2 |[I:staff -1] F4[I:staff +1] B,2 B,2 |[I:staff -1] F2 G2[I:staff +1] D2 B,2 | %7
 F,2 G,2 D2 B,2 | C8 | D8 | z2 G,2 CB,CB, | A,G,A,G, ^F,2 G,2 | D8 | G,8- | G,8 | z8 | z4 D4 | %17
 G,4 B,4 | A,4 G,4- | G,4 ^F,4 | G,4 G,4 | A,8 | D4 D4 |[I:staff -1] G6 F2 |[I:staff +1] _E4 D4 | %25
 C8 | B,4 G,4 | D6 C2 | B,2 A,2 G,A,B,C | D8- | D8 | D8 | G,4 z2 G,2 | C3 C B,2 G,2 | D6 D2 | %35
 C4 D4 | _E8 | D4 z2 D2 | D2 G,2 D2 D2 |[I:staff -1] ^F2 G2[I:staff +1] D4 | B,8- | B,4 F,2 G,2 | %42
 A,8- | A,4 A,4 | A,8 | D4[I:staff -1] G4- | G4 D2 E2 | F8- | F4 _E4 |[I:staff +1] D8- | D8 | %51
 !fermata!G,8 |] %52

